X:1
T: Miss Dickson's Reel
C:
R:Jig
Q:180
K:D
M:6/8
L:1/16
|:A2|d4A2 A2F2A2|B4A2 A2F2A2|d4A2 A2F2A2|d2e2f2 e2d2c2|
d4A2 A2F2A2|B4A2 A2F2A2|G2A2B2 A2G2F2|E2F2E2 G2F2E2|
D4A,2 E4A,2|F4A,2 G4A,2|F4D2 G4E2|A2B2c2 d2A2F2|
D4A,2 E4A,2|F4A,2 G4A,2|D2A2d2 A2G2F2|E2F2E2 D4:|
